Adwaita++/apps/scalable/comix.svg

<svg enable-background="new" height="128" viewBox="0 0 128 128" width="128" xmlns="http://www.w3.org/2000/svg" xmlns:xlink="http://www.w3.org/1999/xlink">
  <radialGradient id="radialGradient6490" cx="177.556" cy="69.589996" gradientTransform="matrix(1 0 0 .654798 0 24.0225)" gradientUnits="userSpaceOnUse" r="9.496">
    <stop offset="0"/>
    <stop offset="1" stop-opacity="0"/>
  </radialGradient>
  <clipPath id="clipPath11530-6">
    <path d="m118.625 209.5c2.58333-.38773 5.16667-.51062 7.75.75 0 0 .28209 5.48132-1.625 5.625-2.37827.17918-6.125-6.375-6.125-6.375z"/>
  </clipPath>
  <g transform="matrix(1.00000000341 0 0 .99999999742 82.00000170748 47.99999013192)">
    <path d="m42.00001 16.000003a59.999999 59.999999 0 0 1 -59.999999 60.000007 59.999999 59.999999 0 0 1 -60.000011-60.000007 59.999999 59.999999 0 0 1 60.000011-59.999996 59.999999 59.999999 0 0 1 59.999999 59.999996z" fill="#2a2105" opacity=".2"/>
    <rect fill="#d5d3cf" height="114" rx="56" width="112" x="-74" y="-42"/>
    <path d="m42.00001 14.000005a59.999999 59.999999 0 0 1 -59.999999 59.999995 59.999999 59.999999 0 0 1 -60.000011-59.999995 59.999999 59.999999 0 0 1 60.000011-60.000005 59.999999 59.999999 0 0 1 59.999999 60.000005z" fill="#789e2d"/>
    <g transform="translate(.593189 10)">
      <g transform="matrix(21.57282401355 -2.25248751112 2.25940695472 21.50675714643 -7225.91803824292 -3206.5766154641)">
        <path d="m313.21176 183.47929c.22609-.0339.45219-.0447.67829.0657 0 0 .0247.47973-.14223.4923-.20815.0157-.53606-.55795-.53606-.55795z" fill="#a4ac9b"/>
        <path clip-path="url(#clipPath11530-6)" d="m116.94751 209.87561c2.58333-.38773 6.84416-.88623 9.42749.37439 0 0 .28209 5.48132-1.625 5.625-2.37827.17918-7.80249-5.99939-7.80249-5.99939z" fill="#fff" opacity=".6" transform="matrix(.0875215 0 0 .0875215 302.82958 165.14354)"/>
      </g>
      <g transform="matrix(-20.82405124336 -1.56515684224 -1.56996486645 20.7602774961 6827.32944398815 -3285.01623658238)">
        <path d="m313.2277 183.48724c.22609-.0339.45219-.0447.67829.0656 0 0 .0247.47973-.14223.4923-.20815.0157-.53606-.55795-.53606-.55795z" fill="#a4ac9b"/>
        <path clip-path="url(#clipPath11530-6)" d="m118.625 209.5c2.58333-.38773 5.16667-.51062 7.75.75 0 0 .28209 5.48132-1.625 5.625-2.37827.17918-6.125-6.375-6.125-6.375z" fill="#fff" opacity=".6" transform="matrix(.0875215 0 0 .0875215 302.84552 165.15149)"/>
      </g>
      <path d="m-64.652959 33.108277h92.119562" fill="none" stroke="#000" stroke-width="1.0005"/>
      <ellipse cx="172.5" cy="115" rx="8.5" ry="17" transform="matrix(.76321623312 0 0 .38043941684 -120.45864034416 -31.33751866145)"/>
      <circle cx="326.53101" cy="57.594002" fill="#eeeeec" r=".406" transform="matrix(2.95866118462 0 0 2.92119565996 -954.89915629336 -159.41515756822)"/>
      <ellipse cx="172.5" cy="115" rx="8.5" ry="17" transform="matrix(.76321623312 0 0 .38043941684 -180.14214355964 -31.33751866145)"/>
      <circle cx="326.53101" cy="57.594002" fill="#eeeeec" r=".406" transform="matrix(2.95866118462 0 0 2.92119565996 -1014.58267258657 -159.41515756822)"/>
    </g>
  </g>
  <g transform="matrix(-8.83199725807 4.4324355057 4.46843753451 8.76083781309 2069.75999958711 -2879.43132208408)">
    <ellipse cx="177.556" cy="69.589996" fill="url(#radialGradient6490)" rx="9.496" ry="6.218" transform="matrix(.08349323 .02755453 -.03453944 .08152897 305.773221 160.68679)"/>
    <ellipse cx="177.556" cy="69.589996" fill="url(#radialGradient6490)" opacity=".60396" rx="9.496" ry="6.218" transform="matrix(.1027214 .03699095 -.04281278 .1085284 303.055691 157.21627)"/>
    <path d="m317.56868 170.64923c-.50716.60775.94601 1.4143 1.34518.64672.44663-.85884-.0474-2.02942-.56597-2.54579-.11396-.11371-.36282.013-.33031.15591.1368.60141-.11676 1.34518-.4489 1.74316z" fill="#060606"/>
  </g>
  <g transform="matrix(8.89151674613 3.66028945948 -3.69001992897 8.81987785997 -2095.33340264668 -2642.62551961096)">
    <ellipse cx="177.556" cy="69.589996" fill="url(#radialGradient6490)" rx="9.496" ry="6.218" transform="matrix(.08207133 .03209209 -.03002257 .08300587 305.537401 159.6259)"/>
    <ellipse cx="177.556" cy="69.589996" fill="url(#radialGradient6490)" opacity=".60396" rx="9.496" ry="6.218" transform="matrix(.1048998 .04088923 -.0408339 .1120144 302.383171 156.21419)"/>
    <path d="m317.45948 170.57723c-.5499.62574.98217 1.41858 1.41991.63253.48978-.87949-.0158-2.05871-.55861-2.5736-.11928-.11337-.38617.0197-.35403.16407.13528.60793-.14716 1.36724-.50727 1.777z" fill="#060606"/>
  </g>
</svg>

<?xml version="1.0" encoding="UTF-8" standalone="no"?>
<svg
   xmlns:dc="http://purl.org/dc/elements/1.1/"
   xmlns:cc="http://creativecommons.org/ns#"
   xmlns:rdf="http://www.w3.org/1999/02/22-rdf-syntax-ns#"
   xmlns:svg="http://www.w3.org/2000/svg"
   xmlns="http://www.w3.org/2000/svg"
   xmlns:xlink="http://www.w3.org/1999/xlink"
   xmlns:sodipodi="http://sodipodi.sourceforge.net/DTD/sodipodi-0.dtd"
   xmlns:inkscape="http://www.inkscape.org/namespaces/inkscape"
   style="enable-background:new"
   width="128"
   height="128"
   version="1.0"
   viewBox="0 0 128 128"
   id="svg79"
   sodipodi:docname="comix.svg"
   inkscape:version="0.92.3 (2405546, 2018-03-11)">
  <metadata
     id="metadata83">
    <rdf:RDF>
      <cc:Work
         rdf:about="">
        <dc:format>image/svg+xml</dc:format>
        <dc:type
           rdf:resource="http://purl.org/dc/dcmitype/StillImage" />
        <dc:title>
  Adwaita Icon Template
 </dc:title>
      </cc:Work>
    </rdf:RDF>
  </metadata>
  <sodipodi:namedview
     pagecolor="#ffffff"
     bordercolor="#666666"
     borderopacity="1"
     objecttolerance="10"
     gridtolerance="10"
     guidetolerance="10"
     inkscape:pageopacity="0"
     inkscape:pageshadow="2"
     inkscape:window-width="1920"
     inkscape:window-height="1009"
     id="namedview81"
     showgrid="false"
     inkscape:zoom="7.0024647"
     inkscape:cx="38.508975"
     inkscape:cy="60.615308"
     inkscape:window-x="0"
     inkscape:window-y="34"
     inkscape:window-maximized="1"
     inkscape:current-layer="g75" />
  <title
     id="title4162">
  Adwaita Icon Template
 </title>
  <defs
     id="defs22">
    <linearGradient
       id="linearGradient950">
      <stop
         style="stop-color:#9a9996"
         id="stop946"
         offset="0" />
      <stop
         style="stop-color:#77767b"
         id="stop948"
         offset="1" />
    </linearGradient>
    <linearGradient
       id="linearGradient1001"
       x1="1660.857"
       x2="1662.99"
       y1="806.297"
       y2="812.882"
       gradientTransform="matrix(1.8293937,-0.81599442,0.81599442,1.8293937,-3645.9624,100.02949)"
       gradientUnits="userSpaceOnUse"
       xlink:href="#linearGradient950" />
    <clipPath
       id="clipPath5154"
       clipPathUnits="userSpaceOnUse">
      <circle
         cx="128"
         cy="924.362"
         r="109.647"
         style="fill:url(#radialGradient5158)"
         id="circle7" />
    </clipPath>
    <clipPath
       id="clipPath977"
       clipPathUnits="userSpaceOnUse">
      <circle
         cx="128"
         cy="924.362"
         r="109.647"
         style="fill:url(#radialGradient5158)"
         id="circle10" />
    </clipPath>
    <clipPath
       id="clipPath4688"
       clipPathUnits="userSpaceOnUse">
      <path
         d="m 106.42383,889.60156 c -2.2448,-0.0524 -4.09304,1.75264 -4.09375,3.99805 v 32.64453 32.64453 c -4e-5,3.07923 3.33305,5.004 6,3.46485 l 28.26953,-16.32227 28.27148,-16.32227 c 2.66559,-1.54001 2.66559,-5.38772 0,-6.92773 l -28.27148,-16.32227 -28.26953,-16.32226 c -0.58054,-0.3353 -1.23603,-0.51932 -1.90625,-0.53516 z"
         style="fill:url(#radialGradient4692);stroke:#a7003f;stroke-linecap:round;stroke-linejoin:round"
         id="path13" />
    </clipPath>
    <clipPath
       id="clipPath4564"
       clipPathUnits="userSpaceOnUse">
      <circle
         style="fill:url(#radialGradient4568)"
         cx="128"
         cy="924.362"
         r="109.647"
         id="circle16" />
    </clipPath>
    <clipPath
       id="clipPath6215"
       clipPathUnits="userSpaceOnUse">
      <path
         d="m 105.17325,806.18572 c -3.06859,0.56361 -6.11393,1.24721 -9.129005,2.04923 -3.838255,1.06506 -7.62084,2.32142 -11.333578,3.76438 -3.712189,1.44307 -7.34989,3.07087 -10.899472,4.87732 -3.549153,1.80656 -7.005749,3.78947 -10.35684,5.94129 -3.351877,2.15253 -6.593991,4.47137 -9.714191,6.94783 -3.119992,2.47544 -6.114241,5.10535 -8.971529,7.87988 -0.367219,0.38909 -0.731819,0.78065 -1.093777,1.17464 2.60205,17.85956 16.832359,40.03752 30.863064,55.74236 -4.76734,8.84435 -7.265993,18.73329 -7.272057,28.78068 0.02104,2.87431 0.246096,5.7435 0.673482,8.58593 -20.257302,-9.18513 -43.077023,-26.53494 -52.798465,-47.36396 -0.440667,1.15171 -0.863474,2.31018 -1.268271,3.47498 -1.176789,3.80495 -2.162562,7.66637 -2.953625,11.56979 -0.79154,3.90311 -1.3874065,7.84335 -1.7853678,11.80598 -0.39733,3.96334 -0.5961891,7.94407 -0.5958321,11.92728 -4.394e-4,2.81936 0.098928,5.63785 0.2979155,8.45018 0.282275,3.97319 0.763088,7.92978 1.4406374,11.85493 0.625626,3.51826 1.408798,7.00668 2.347153,10.45473 16.778133,6.68355 43.114514,5.45001 63.748015,1.14301 6.818545,11.02763 16.987182,19.58379 29.018153,24.41667 -18.071844,12.93645 -44.490188,24.02095 -67.37308,22.03245 1.384097,1.665 2.813203,3.2921 4.285735,4.8794 2.774977,2.8571 5.691103,5.5737 8.737453,8.1395 3.046107,2.5658 6.218619,4.9777 9.505651,7.2266 3.287242,2.2488 6.684891,4.3319 10.180217,6.2413 3.495379,1.9096 7.084075,3.6433 10.752641,5.1944 3.66896,1.5509 7.413193,2.9174 11.218668,4.0942 1.438565,0.3959 2.884421,0.7648 4.336807,1.1066 14.138748,-11.1844 26.206378,-34.5828 32.780368,-54.56406 12.95816,-0.38251 25.45395,-4.90132 35.65955,-12.89544 2.15922,22.12638 -1.46693,50.5581 -14.64692,69.3832 3.06859,-0.5636 6.11393,-1.2473 9.129,-2.0493 3.83826,-1.0651 7.62084,-2.3214 11.33358,-3.7644 3.71219,-1.4431 7.34989,-3.0709 10.89947,-4.8773 3.54915,-1.8066 7.00575,-3.7895 10.35684,-5.9413 3.35188,-2.1525 6.59399,-4.4714 9.71419,-6.9478 3.11999,-2.4754 6.11424,-5.1054 8.97153,-7.8799 0.36722,-0.3891 0.73182,-0.7806 1.09378,-1.1746 -2.60204,-17.85957 -16.83236,-40.03755 -30.86307,-55.74238 4.76735,-8.84435 7.266,-18.7333 7.27207,-28.78069 -0.021,-2.8743 -0.24611,-5.74349 -0.6735,-8.58592 20.25731,9.18513 43.07704,26.53494 52.79848,47.36396 0.44067,-1.15171 0.86347,-2.31018 1.26827,-3.47499 1.17679,-3.80495 2.16256,-7.66636 2.95362,-11.56978 0.79154,-3.90311 1.38741,-7.84335 1.78537,-11.80598 0.39733,-3.96334 0.59619,-7.94408 0.59583,-11.92729 4.4e-4,-2.81936 -0.0989,-5.63784 -0.29791,-8.45017 -0.28228,-3.97319 -0.76309,-7.92978 -1.44064,-11.85493 -0.62776,-3.53416 -1.41449,-7.03823 -2.35779,-10.50154 -20.56165,-7.32804 -45.89823,-4.79548 -63.74906,-1.11372 -6.81835,-11.01918 -16.98234,-19.56874 -29.00647,-24.39915 18.07184,-12.93645 44.49019,-24.02091 67.37307,-22.03241 -1.38409,-1.66502 -2.8132,-3.2921 -4.28573,-4.87944 -2.77498,-2.85712 -5.6911,-5.57368 -8.73745,-8.13949 -3.04611,-2.56581 -6.21862,-4.97769 -9.50565,-7.22659 -3.28724,-2.24885 -6.68489,-4.3319 -10.18022,-6.24135 -3.49538,-1.90963 -7.08407,-3.64325 -10.75264,-5.19438 -3.66896,-1.55092 -7.41319,-2.91736 -11.21867,-4.09421 -1.42662,-0.39262 -2.86041,-0.75869 -4.30063,-1.09804 -14.14688,11.18369 -26.2293,34.57475 -32.8107,54.55552 -12.96018,0.38127 -25.4582,4.90015 -35.665394,12.89544 -2.15922,-22.12637 1.466931,-50.55807 14.646924,-69.38315 z"
         style="fill:url(#radialGradient6219)"
         id="path19" />
    </clipPath>
    <radialGradient
       id="radialGradient6490"
       cx="177.556"
       cy="69.589996"
       r="9.4960003"
       fx="177.556"
       fy="69.589996"
       gradientTransform="matrix(1,0,0,0.654798,0,24.0225)"
       gradientUnits="userSpaceOnUse"
       xlink:href="#linearGradient6537" />
    <linearGradient
       id="linearGradient6537">
      <stop
         style="stop-color:rgb(0, 0, 0)"
         id="stop6539"
         offset="0" />
      <stop
         style="stop-color:rgb(0, 0, 0);stop-opacity:0"
         id="stop6541"
         offset="1" />
    </linearGradient>
    <radialGradient
       id="radialGradient6492"
       cx="177.556"
       cy="69.589996"
       r="9.4960003"
       fx="177.556"
       fy="69.589996"
       gradientTransform="matrix(1,0,0,0.654798,0,24.0225)"
       gradientUnits="userSpaceOnUse"
       xlink:href="#linearGradient6537" />
    <radialGradient
       id="radialGradient3998"
       cx="177.556"
       cy="69.589996"
       r="9.4960003"
       fx="177.556"
       fy="69.589996"
       gradientTransform="matrix(1,0,0,0.654798,0,24.0225)"
       gradientUnits="userSpaceOnUse"
       xlink:href="#linearGradient6537" />
    <radialGradient
       id="radialGradient4000"
       cx="177.556"
       cy="69.589996"
       r="9.4960003"
       fx="177.556"
       fy="69.589996"
       gradientTransform="matrix(1,0,0,0.654798,0,24.0225)"
       gradientUnits="userSpaceOnUse"
       xlink:href="#linearGradient6537" />
    <clipPath
       id="clipPath11530-6"
       clipPathUnits="userSpaceOnUse">
      <path
         inkscape:connector-curvature="0"
         style="fill:none;stroke:#000000;stroke-width:0.0875215;stroke-dashoffset:0pt"
         d="m 118.625,209.5 c 2.58333,-0.38773 5.16667,-0.51062 7.75,0.75 0,0 0.28209,5.48132 -1.625,5.625 -2.37827,0.17918 -6.125,-6.375 -6.125,-6.375 z"
         id="path77" />
    </clipPath>
    <clipPath
       id="clipPath1001"
       clipPathUnits="userSpaceOnUse">
      <path
         inkscape:connector-curvature="0"
         style="fill:none;stroke:#000000;stroke-width:0.0875215;stroke-dashoffset:0pt"
         d="m 118.625,209.5 c 2.58333,-0.38773 5.16667,-0.51062 7.75,0.75 0,0 0.28209,5.48132 -1.625,5.625 -2.37827,0.17918 -6.125,-6.375 -6.125,-6.375 z"
         id="path999" />
    </clipPath>
  </defs>
  <g
     id="layer1"
     transform="matrix(0.86666673,0,0,0.86666673,9.5333867,-142.40002)">
    <g
       id="layer9">
      <g
         transform="matrix(3.3848044,0,0,3.3819416,-20.257041,-684.25618)"
         id="g75">
        <g
           transform="matrix(0.34089003,0,0,0.34117859,30.687847,267.28684)"
           id="g130">
          <path
             inkscape:connector-curvature="0"
             style="opacity:0.2;fill:#2a2105"
             d="M 42.00001,16.000003 A 59.999999,59.999999 0 0 1 -17.999989,76.00001 59.999999,59.999999 0 0 1 -78,16.000003 59.999999,59.999999 0 0 1 -17.999989,-43.999993 59.999999,59.999999 0 0 1 42.00001,16.000003 Z"
             id="path87" />
          <rect
             width="112"
             height="114"
             x="-74"
             y="-42"
             rx="56"
             ry="56"
             style="fill:#d5d3cf"
             id="rect89" />
          <path
             inkscape:connector-curvature="0"
             d="M 42.00001,14.000005 A 59.999999,59.999999 0 0 1 -17.999989,74 59.999999,59.999999 0 0 1 -78,14.000005 59.999999,59.999999 0 0 1 -17.999989,-46 59.999999,59.999999 0 0 1 42.00001,14.000005 Z"
             style="fill:#789e2d"
             id="path91" />
          <g
             transform="translate(0.59318944,10)"
             id="g128">
            <g
               transform="matrix(2.5949351,0,0,2.5869881,-82.982769,-50.650847)"
               id="g109">
              <g
                 transform="matrix(-6.3250506,5.4648949,5.4648949,6.3250506,1037.8937,-2858.9753)"
                 id="g99">
                <g
                   transform="matrix(-0.820668,0.571405,0.571405,0.820668,471.332,-148.098)"
                   id="g97">
                  <path
                     inkscape:connector-curvature="0"
                     style="fill:#a4ac9b"
                     d="m 313.21176,183.47929 c 0.22609,-0.0339 0.45219,-0.0447 0.67829,0.0657 0,0 0.0247,0.47973 -0.14223,0.4923 -0.20815,0.0157 -0.53606,-0.55795 -0.53606,-0.55795 z"
                     id="path93" />
                  <path
                     inkscape:connector-curvature="0"
                     d="m 116.94751,209.87561 c 2.58333,-0.38773 6.84416,-0.88623 9.42749,0.37439 0,0 0.28209,5.48132 -1.625,5.625 -2.37827,0.17918 -7.80249,-5.99939 -7.80249,-5.99939 z"
                     clip-path="url(#clipPath11530-6)"
                     transform="matrix(0.0875215,0,0,0.0875215,302.82958,165.14354)"
                     style="opacity:0.6;fill:#ffffff"
                     id="path95" />
                </g>
              </g>
              <g
                 transform="matrix(6.2400607,5.0819736,-5.0819736,6.2400607,-1030.7704,-2721.3999)"
                 id="g107">
                <g
                   transform="matrix(-0.820668,0.571405,0.571405,0.820668,471.332,-148.098)"
                   id="g105">
                  <path
                     inkscape:connector-curvature="0"
                     d="m 313.2277,183.48724 c 0.22609,-0.0339 0.45219,-0.0447 0.67829,0.0656 0,0 0.0247,0.47973 -0.14223,0.4923 -0.20815,0.0157 -0.53606,-0.55795 -0.53606,-0.55795 z"
                     style="fill:#a4ac9b"
                     id="path101" />
                  <path
                     inkscape:connector-curvature="0"
                     style="opacity:0.6;fill:#ffffff"
                     d="m 118.625,209.5 c 2.58333,-0.38773 5.16667,-0.51062 7.75,0.75 0,0 0.28209,5.48132 -1.625,5.625 -2.37827,0.17918 -6.125,-6.375 -6.125,-6.375 z"
                     clip-path="url(#clipPath11530-6)"
                     transform="matrix(0.0875215,0,0,0.0875215,302.84552,165.15149)"
                     id="path103" />
                </g>
              </g>
            </g>
            <path
               inkscape:connector-curvature="0"
               d="M -64.652959,33.108277 H 27.466603"
               style="fill:none;stroke:#000000;stroke-width:1.00049961"
               id="path111" />
            <g
               transform="matrix(2.5949351,0,0,2.5869881,-49.758339,-17.782389)"
               id="g118">
              <g
                 id="use12709"
                 transform="matrix(0.300126,0,0,0.1287939,-28.672113,-2.6773104)">
                <ellipse
                   cx="172.5"
                   cy="115"
                   rx="8.5"
                   ry="17"
                   transform="matrix(0.9799806,0,0,1.1418151,4.7533844,-19.895539)"
                   id="ellipse113" />
              </g>
              <circle
                 style="fill:#eeeeec"
                 cx="326.53101"
                 cy="57.594002"
                 r="0.40599999"
                 transform="matrix(1.1401677,0,0,1.1291879,-348.81058,-54.748133)"
                 id="circle116" />
            </g>
            <g
               transform="matrix(2.5949351,0,0,2.5869881,-112.05851,-17.782389)"
               id="g126">
              <g
                 transform="matrix(0.300126,0,0,0.1287939,-28.672113,-2.6773104)"
                 id="g122">
                <ellipse
                   cx="172.5"
                   cy="115"
                   rx="8.5"
                   ry="17"
                   transform="matrix(0.9799806,0,0,1.1418151,8.1132233,-19.895539)"
                   id="ellipse120" />
              </g>
              <circle
                 style="fill:#eeeeec"
                 cx="326.53101"
                 cy="57.594002"
                 r="0.40599999"
                 transform="matrix(1.1401677,0,0,1.1291879,-347.80221,-54.748133)"
                 id="circle124" />
            </g>
          </g>
        </g>
        <g
           transform="matrix(-3.0107398,1.5122521,1.5232458,2.9890103,708.29541,-731.49005)"
           id="g140">
          <g
             transform="translate(-0.038229,-0.1623)"
             id="g136">
            <ellipse
               cx="177.556"
               cy="69.589996"
               rx="9.4960003"
               ry="6.2179999"
               transform="matrix(0.08349323,0.02755453,-0.03453944,0.08152897,305.81145,160.84909)"
               style="fill:url(#radialGradient3998)"
               id="ellipse132" />
            <ellipse
               style="opacity:0.60395998;fill:url(#radialGradient4000)"
               cx="177.556"
               cy="69.589996"
               rx="9.4960003"
               ry="6.2179999"
               transform="matrix(0.1027214,0.03699095,-0.04281278,0.1085284,303.09392,157.37857)"
               id="ellipse134" />
          </g>
          <path
             inkscape:connector-curvature="0"
             d="m 317.56868,170.64923 c -0.50716,0.60775 0.94601,1.4143 1.34518,0.64672 0.44663,-0.85884 -0.0474,-2.02942 -0.56597,-2.54579 -0.11396,-0.11371 -0.36282,0.013 -0.33031,0.15591 0.1368,0.60141 -0.11676,1.34518 -0.4489,1.74316 z"
             style="fill:#060606"
             id="path138" />
        </g>
        <g
           transform="matrix(3.0310294,1.2488124,-1.257891,3.0091535,-711.5434,-650.69698)"
           id="g150">
          <g
             transform="translate(-0.038229,-0.1623)"
             id="g146">
            <ellipse
               style="fill:url(#radialGradient6490)"
               cx="177.556"
               cy="69.589996"
               rx="9.4960003"
               ry="6.2179999"
               transform="matrix(0.08207133,0.03209209,-0.03002257,0.08300587,305.57563,159.7882)"
               id="ellipse142" />
            <ellipse
               cx="177.556"
               cy="69.589996"
               rx="9.4960003"
               ry="6.2179999"
               transform="matrix(0.1048998,0.04088923,-0.0408339,0.1120144,302.4214,156.37649)"
               style="opacity:0.60395998;fill:url(#radialGradient6492)"
               id="ellipse144" />
          </g>
          <path
             inkscape:connector-curvature="0"
             style="fill:#060606"
             d="m 317.45948,170.57723 c -0.5499,0.62574 0.98217,1.41858 1.41991,0.63253 0.48978,-0.87949 -0.0158,-2.05871 -0.55861,-2.5736 -0.11928,-0.11337 -0.38617,0.0197 -0.35403,0.16407 0.13528,0.60793 -0.14716,1.36724 -0.50727,1.777 z"
             id="path148" />
        </g>
      </g>
    </g>
  </g>
</svg>
